public/assets/img/app/svg/assestment.svg

<svg width="40" height="40" viewBox="0 0 40 40" fill="none" xmlns="http://www.w3.org/2000/svg">
<g clip-path="url(#clip0)">
<path d="M36.4062 2.5H28.2031L20 4.0625L8.28125 21.25L20 40H36.4062V2.5Z" fill="#49C4EE"/>
<path d="M3.59375 2.5V40H20V4.0625L11.7969 2.5H3.59375Z" fill="#49C4EE"/>
<path d="M31.7188 7.1875H20L15.3125 21.25L20 35.3125H31.7188V7.1875Z" fill="#F3F3F3"/>
<path d="M8.28125 7.1875H20V35.3125H8.28125V7.1875Z" fill="white"/>
<path d="M22.3438 20.0781V16.5625H20L17.6562 22.4219L20 28.2812H22.3438V24.7656H25.8594V20.0781H22.3438Z" fill="#0047BE"/>
<path d="M17.6562 16.5625V20.0781H14.1406V24.7656H17.6562V28.2812H20V16.5625H17.6562Z" fill="#0047BE"/>
<path d="M28.2031 2.5H23.9563L22.486 1.02966C21.8219 0.365601 20.939 0 20 0L17.6562 4.76562L20 9.53125H28.2031V2.5Z" fill="#00DEB0"/>
<path d="M17.514 1.02966L16.0437 2.5H11.7969V9.53125H20V0C19.061 0 18.1781 0.365601 17.514 1.02966Z" fill="#00DEB0"/>
</g>
<defs>
<clipPath id="clip0">
<rect width="40" height="40" fill="white"/>
</clipPath>
</defs>
</svg>

<svg xmlns="http://www.w3.org/2000/svg" width="40" height="40" fill="none"><g clip-path="url(#A)"><g fill="#49c4ee"><path d="M36.406 2.5h-8.203L20 4.063 8.28 21.25 20 40h16.406V2.5z"/><path d="M3.594 2.5V40H20V4.063L11.797 2.5H3.594z"/></g><path d="M31.72 7.188H20L15.313 21.25 20 35.313h11.72V7.188z" fill="#f3f3f3"/><path d="M8.28 7.188H20v28.125H8.28V7.188z" fill="#fff"/><g fill="#0047be"><path d="M22.344 20.078v-3.516H20l-2.344 5.86L20 28.28h2.344v-3.516h3.516v-4.687h-3.516z"/><path d="M17.656 16.563v3.516H14.14v4.688h3.516v3.516H20v-11.72h-2.344z"/></g><g fill="#00deb0"><path d="M28.203 2.5h-4.247l-1.47-1.47A3.49 3.49 0 0 0 20 0l-2.344 4.766L20 9.53h8.203V2.5z"/><path d="M17.514 1.03l-1.47 1.47h-4.247v7.03H20V0a3.49 3.49 0 0 0-2.486 1.03z"/></g></g><defs><clipPath id="A"><path fill="#fff" d="M0 0h40v40H0z"/></clipPath></defs></svg>
